X:809
T:The Wild Geese
T:Mrs. MacPherson of Cluny
C:Joseph Lowe
N:Originally in A
S:Colin Hume's website,  colinhume.com  - chords can also be printed below the stave.
Q:3/8=112
M:6/8
L:1/8
K:G
P:A
|:d | "G"B2d dBd | "C"efg "G"dBG | "G"B2d "Em"dBG | "Am"FGA "D7"ABc |\
"G"B2d dBd | "C"efg "G"dBG | "Am"ABc "D7"def | "G"gdB G2 :|
P:B
(3d/e/f/ | "G"g3 GBd | "C"gfg "G"dBG | "Am"cBA ecA | "D7"afd def |\
"G"g3 GBd | "C"gfg "G"dBG | "D"ABc def | "G"gdB G2 ||
(3d/e/f/ | "G"g3 GBd | "C"gfg "G"dBG | "Am"cBA ecA |\
"D7"afd def | "G"g2d dBd | "C"efg "G"dBG | "D"ABc def | "G"gdB G2 |]

